X: 30774
T: QUICKSTEP No. 1
T: Believe Me if All those Endearing Young Charms
C:
%R: jig, quickstep
B: Elias Howe "The Musician's Companion" Part 3 1844 p.77 #3
S: http://imslp.org/wiki/The_Musician's_Companion_(Howe,_Elias)
Z: 2015 John Chambers <jc:trillian.mit.edu>
N: Initial rest added to strain 2, to fix the rhythm.
M: 6/8
L: 1/8
K: G
% - - - - - - - - - - - - - - - - - - - - - - - - -
B/A/ |\
G>AG GBd | ceg g2f/e/ | d>cB A>GA | BAA  A2 B/A/ |\
GAG GBd | (ce)g g2(f/e/) | dgB A>GA | G3- G2 :|
|: d |\
d(Bg) g2d | (ecg) g2(f/e/) | d>cB (AG)A | B3 B2 (B/A/) |\
G>AG G(Bd) | ceg g2(f/e/) | dgB A>GA | G3- G2 :|
% - - - - - - - - - - - - - - - - - - - - - - - - -
